X: 208
T: Sweet pea
M: 4/4
L: 1/8
C: Barry Harris
Q: 1/4=120
%%staves (chords melody)
K: Cm
%%text (slow/medium)
%%vskip 20
% A %%%%%%%%%%%%%%%%%%%%%%%%%%%%%%%%%%%%
P: A
V: chords
"Cm6"x4 x4 | "Ab7"x4 "G7"x4 | "Gb7"x4 x4 | "F7"x4 x4 |
"Ab7"x4 x4 | "G7"x4 x4 | "Cm6"x4 x4 | "T.A."x4 x4 ||
V: melody
z3C G,=A,CE- | E2FD E=B,3 | z3C G,=A,CE- | E2FD EC3 |
z3C _G,B,CE | zD3- D2DC | z8 | z8 ||
% A %%%%%%%%%%%%%%%%%%%%%%%%%%%%%%%%%%%%
P: A
V: chords
"Cm6"x4 x4 | "Ab7"x4 "G7"x4 | "Gb7"x4 x4 | "F7"x4 x4 |
"Ab7"x4 x4 | "G7"x4 x4 | "Cm6"x4 x4 | "T.A."x4 x4 ||
V: melody
z3C G,=A,CE- | E2FD E=B,3 | z3C G,=A,CE- | E2FD EC3 |
z3C _G,B,CE | zD3- D2DC | z8 | z8 ||
% B %%%%%%%%%%%%%%%%%%%%%%%%%%%%%%%%%%%%
P: B
V: chords
"Fm6"x4 x4 | x4 x4 | "Cm6"x4 x4 | x4 x4 |
"Ab7"x4 x4 | x4 x4 | "G7"x4 x4 | x4 x4 ||
V: melody
z8 | z8 | z8 | z8 |
z8 | z8 | z8 | z8 ||
% A %%%%%%%%%%%%%%%%%%%%%%%%%%%%%%%%%%%%
P: A
V: chords
"Cm6"x4 x4 | "Ab7"x4 "G7"x4 | "Gb7"x4 x4 | "F7"x4 x4 |
"Ab7"x4 x4 | "G7"x4 x4 | "Cm6"x4 x4 | "T.A."x4 x4 |]
V: melody
z3C G,=A,CE- | E2FD E=B,3 | z3C G,=A,CE- | E2FD EC3 |
z3C _G,B,CE | zD3- D2DC | z8 | z8 |]
